COLOR/action 16/16/format-disconnect-node.svg

<svg height="16" viewBox="0 0 16 16" width="16" xmlns="http://www.w3.org/2000/svg"><path d="m8.0052342 10.915989c.2993183-.488662.5865095-.9847648.8608876-1.4881383.2716774-.501976.5280572-1.0129398.7691952-1.5305832h-1.3040664v-2.2881576h-.652033v2.2894431h-1.304066c.2269075.5004876.4805587 1.0103709.7602809 1.5292977.2754963.5043469.5655473 1.0009423.8698017 1.4881383z" fill="#e95420" stroke-width=".655277"/><g fill="#e95420" stroke="#d0438d" stroke-linecap="round" stroke-linejoin="round" stroke-width="1.022475" transform="matrix(.62368376 0 0 -.65853658 -11.7899 28.795803)"><path d="m504.50678 60.353953v-1.002084h-23v1.002084z" stroke-width="1.023539" transform="matrix(1 0 0 .997921 -461.27797 -20.899664)"/><path d="m.99023438 4v1h4.40039062v-1zm17.00976562 0v1h4.990234v-1z" stroke-width="1" transform="matrix(-1.0454545 0 0 .99999997 44.26331 19.828812)"/></g><g fill="#1d99f3" fill-rule="evenodd" transform="matrix(.65203302 0 0 .65853658 .180818 .262195)"><path d="m732.26421 18.307242c-.00029.250373.20275.453415.45312.453125h3.6211c.25037.00029.45341-.202752.45312-.453125v-3.583985c.00029-.250373-.20275-.453415-.45312-.453125h-3.6211c-.25037-.00029-.45341.202752-.45312.453125z" transform="matrix(-1.3252813 0 0 -1.3362328 991.93581 41.068218)"/><path d="m732.26421 18.307242c-.00029.250373.20275.453415.45312.453125h3.6211c.25037.00029.45341-.202752.45312-.453125v-3.583985c.00029-.250373-.20275-.453415-.45312-.453125h-3.6211c-.25037-.00029-.45341.202752-.45312.453125z" transform="matrix(-1.3252813 0 0 -1.3362328 978.93581 41.068218)"/><path d="m732.26421 18.307242c-.00029.250373.20275.453415.45312.453125h3.6211c.25037.00029.45341-.202752.45312-.453125v-3.583985c.00029-.250373-.20275-.453415-.45312-.453125h-3.6211c-.25037-.00029-.45341.202752-.45312.453125z" transform="matrix(-1.3252813 0 0 -1.3362328 991.93581 26.568218)"/><path d="m732.26421 18.307242c-.00029.250373.20275.453415.45312.453125h3.6211c.25037.00029.45341-.202752.45312-.453125v-3.583985c.00029-.250373-.20275-.453415-.45312-.453125h-3.6211c-.25037-.00029-.45341.202752-.45312.453125z" transform="matrix(-1.3252813 0 0 -1.3362328 978.93581 26.568218)"/></g></svg>

<?xml version="1.0" encoding="UTF-8" standalone="no"?>
<svg
   xmlns:dc="http://purl.org/dc/elements/1.1/"
   xmlns:cc="http://creativecommons.org/ns#"
   xmlns:rdf="http://www.w3.org/1999/02/22-rdf-syntax-ns#"
   xmlns:svg="http://www.w3.org/2000/svg"
   xmlns="http://www.w3.org/2000/svg"
   xmlns:sodipodi="http://sodipodi.sourceforge.net/DTD/sodipodi-0.dtd"
   xmlns:inkscape="http://www.inkscape.org/namespaces/inkscape"
   viewBox="0 0 16 16"
   version="1.1"
   id="svg20"
   sodipodi:docname="format-disconnect-node.svg"
   width="16"
   height="16"
   inkscape:version="0.92.4 (5da689c313, 2019-01-14)">
  <metadata
     id="metadata26">
    <rdf:RDF>
      <cc:Work
         rdf:about="">
        <dc:format>image/svg+xml</dc:format>
        <dc:type
           rdf:resource="http://purl.org/dc/dcmitype/StillImage" />
        <dc:title></dc:title>
      </cc:Work>
    </rdf:RDF>
  </metadata>
  <defs
     id="defs24" />
  <sodipodi:namedview
     pagecolor="#ffffff"
     bordercolor="#666666"
     borderopacity="1"
     objecttolerance="10"
     gridtolerance="10"
     guidetolerance="10"
     inkscape:pageopacity="0"
     inkscape:pageshadow="2"
     inkscape:window-width="1917"
     inkscape:window-height="922"
     id="namedview22"
     showgrid="false"
     inkscape:zoom="9.8333333"
     inkscape:cx="12"
     inkscape:cy="12"
     inkscape:window-x="0"
     inkscape:window-y="27"
     inkscape:window-maximized="0"
     inkscape:current-layer="svg20" />
  <path
     d="M 8.0052342,10.915989 C 8.3045525,10.427327 8.5917437,9.9312242 8.8661218,9.4278507 9.1377992,8.9258747 9.394179,8.4149109 9.635317,7.8972675 H 8.3312506 V 5.6091099 H 7.6792176 V 7.898553 h -1.304066 c 0.2269075,0.5004876 0.4805587,1.0103709 0.7602809,1.5292977 0.2754963,0.5043469 0.5655473,1.0009423 0.8698017,1.4881383 z"
     id="path2"
     inkscape:connector-curvature="0"
     style="fill:#e95420;stroke-width:0.65527672" />
  <g
     transform="matrix(0.62368376,0,0,-0.65853658,-11.7899,28.795803)"
     id="g8"
     style="fill:#e95420;stroke:#d0438d;stroke-width:1.022475;stroke-linecap:round;stroke-linejoin:round">
    <path
       d="m 504.50678,60.353953 v -1.002084 h -23 v 1.002084 z"
       transform="matrix(1,0,0,0.997921,-461.27797,-20.899664)"
       id="path4"
       inkscape:connector-curvature="0"
       style="stroke-width:1.02353895" />
    <path
       d="M 0.99023438,4 V 5 H 5.390625 V 4 Z M 18,4 v 1 h 4.990234 V 4 Z"
       transform="matrix(-1.0454545,0,0,0.99999997,44.26331,19.828812)"
       id="path6"
       inkscape:connector-curvature="0"
       style="stroke-width:1" />
  </g>
  <g
     id="g18"
     transform="matrix(0.65203302,0,0,0.65853658,0.18081802,0.26219526)"
     style="fill:#1d99f3;fill-rule:evenodd">
    <path
       d="m 732.26421,18.307242 c -2.9e-4,0.250373 0.20275,0.453415 0.45312,0.453125 h 3.6211 c 0.25037,2.9e-4 0.45341,-0.202752 0.45312,-0.453125 v -3.583985 c 2.9e-4,-0.250373 -0.20275,-0.453415 -0.45312,-0.453125 h -3.6211 c -0.25037,-2.9e-4 -0.45341,0.202752 -0.45312,0.453125 z"
       transform="matrix(-1.3252813,0,0,-1.3362328,991.93581,41.068218)"
       id="path10"
       inkscape:connector-curvature="0" />
    <path
       d="m 732.26421,18.307242 c -2.9e-4,0.250373 0.20275,0.453415 0.45312,0.453125 h 3.6211 c 0.25037,2.9e-4 0.45341,-0.202752 0.45312,-0.453125 v -3.583985 c 2.9e-4,-0.250373 -0.20275,-0.453415 -0.45312,-0.453125 h -3.6211 c -0.25037,-2.9e-4 -0.45341,0.202752 -0.45312,0.453125 z"
       transform="matrix(-1.3252813,0,0,-1.3362328,978.93581,41.068218)"
       id="path12"
       inkscape:connector-curvature="0" />
    <path
       d="m 732.26421,18.307242 c -2.9e-4,0.250373 0.20275,0.453415 0.45312,0.453125 h 3.6211 c 0.25037,2.9e-4 0.45341,-0.202752 0.45312,-0.453125 v -3.583985 c 2.9e-4,-0.250373 -0.20275,-0.453415 -0.45312,-0.453125 h -3.6211 c -0.25037,-2.9e-4 -0.45341,0.202752 -0.45312,0.453125 z"
       transform="matrix(-1.3252813,0,0,-1.3362328,991.93581,26.568218)"
       id="path14"
       inkscape:connector-curvature="0" />
    <path
       d="m 732.26421,18.307242 c -2.9e-4,0.250373 0.20275,0.453415 0.45312,0.453125 h 3.6211 c 0.25037,2.9e-4 0.45341,-0.202752 0.45312,-0.453125 v -3.583985 c 2.9e-4,-0.250373 -0.20275,-0.453415 -0.45312,-0.453125 h -3.6211 c -0.25037,-2.9e-4 -0.45341,0.202752 -0.45312,0.453125 z"
       transform="matrix(-1.3252813,0,0,-1.3362328,978.93581,26.568218)"
       id="path16"
       inkscape:connector-curvature="0" />
  </g>
</svg>
